**kern	**text	**kern	**text	**kern	**text	**kern	**text	**kern	**text
*staff5	*staff5	*staff4	*staff4	*staff3	*staff3	*staff2	*staff2	*staff1	*staff1
*I"Basso	*	*I"Tenore	*	*I"Alto	*	*I"Soprano II	*	*I"Soprano I	*
=1-	=1-	=1-	=1-	=1-	=1-	=1-	=1-	=1-	=1-
*clefF4	*	*clefGv2	*	*clefGv2	*	*clefG2	*	*clefG2	*
*k[]	*	*k[]	*	*k[]	*	*k[]	*	*k[]	*
*met(c|)	*	*met(c|)	*	*met(c|)	*	*met(c|)	*	*met(c|)	*
*M2/2	*	*M2/2	*	*M2/2	*	*M2/2	*	*M2/2	*
1C	E-	1G	E-	1c	E-	1r	.	1e	E-
=2	=2	=2	=2	=2	=2	=2	=2	=2	=2
2C/	-ram	2G/	-ram	2c\	-ram	1r	.	2e/	-ram
[2C/	qua-	[2G/	qua-	[2c\	qua-	.	.	[2e/	qua-
=3	=3	=3	=3	=3	=3	=3	=3	=3	=3
2C/]	.	2G/]	.	2c\]	.	1r	.	2e/]	.
2C/	-si	2G/	-si	2c\	-si	.	.	2e/	-si
=4	=4	=4	=4	=4	=4	=4	=4	=4	=4
1F	a-	1A	a-	1c	a-	1r	.	1f	a-
=5	=5	=5	=5	=5	=5	=5	=5	=5	=5
1D	-gnus	1A	-gnus	1d	-gnus	1r	.	1f	-gnus
=6	=6	=6	=6	=6	=6	=6	=6	=6	=6
[1F	in-	[1A	in-	[1c	in-	1r	.	[1f	in-
=7	=7	=7	=7	=7	=7	=7	=7	=7	=7
2F\]	.	2A/]	.	2c\]	.	1r	.	2f/]	.
2C/	-no-	2G/	-no-	2c\	-no-	.	.	2e/	-no-
=8	=8	=8	=8	=8	=8	=8	=8	=8	=8
1C	-cens:	2G/	-cens:	2c\	-cens:	1r	.	2e/	-cens:
.	.	[2c\	du-	[2e\	du-	.	.	[2g/	du-
=9	=9	=9	=9	=9	=9	=9	=9	=9	=9
[1G	du-	2c\]	.	2e\]	.	1r	.	2g/]	.
.	.	2B\	-ctus	2d\	-ctus	.	.	2g/	-ctus
=10	=10	=10	=10	=10	=10	=10	=10	=10	=10
2G\]	.	2B\	sum	2d\	sum	1r	.	2g/	sum
2G\	-ctus	2B\	ad	2d\	ad	.	.	2g/	ad
=11	=11	=11	=11	=11	=11	=11	=11	=11	=11
!!linebreak:original
2F\	ad	2c\	im-	2f\	im-	1r	.	[1a	im-
2F\	im-	2c\	-mo-	2f\	-mo-	.	.	.	.
=12	=12	=12	=12	=12	=12	=12	=12	=12	=12
2A\	.	[1c	-lan-	1e	-lan-	1r	.	2a/]	.
2A\	-mo-	.	.	.	.	.	.	2e/	-mo-
=13	=13	=13	=13	=13	=13	=13	=13	=13	=13
1A	-lan-	1c]	.	1e	-dum,	1r	.	1a	-lan-
=14	=14	=14	=14	=14	=14	=14	=14	=14	=14
2E\	-dum,	1B	-dum,	2r	.	1r	.	2g/	-dum,
2G\	et	.	.	2d\	et	.	.	2g/	et
=15	=15	=15	=15	=15	=15	=15	=15	=15	=15
[1F	ne-	2c\	et	[1f	ne-	1r	.	[1a	ne-
.	.	[2d\	ne-	.	.	.	.	.	.
=16	=16	=16	=16	=16	=16	=16	=16	=16	=16
2F\]	.	4d\]	.	2f\]	.	1r	.	2a/]	.
.	.	4c\	-sci-	.	.	.	.	.	.
2F\	-sci-	[2c\	-e-	2f\	-sci-	.	.	2a/	-sci-
=17	=17	=17	=17	=17	=17	=17	=17	=17	=17
1G	-e-	2c\]	.	1d	-e-	1r	.	1g	-e-
.	.	2B\	.	.	.	.	.	.	.
=18	=18	=18	=18	=18	=18	=18	=18	=18	=18
1C	-bam:	1c	-bam:	1e	-bam:	1r	.	1g	-bam:
=19	=19	=19	=19	=19	=19	=19	=19	=19	=19
2r	.	2r	.	2r	.	1r	.	2r	.
2C/	con-	2G/	con-	2c\	con-	.	.	2e/	con-
=20	=20	=20	=20	=20	=20	=20	=20	=20	=20
2C/	-si-	2G/	-si-	2c\	-si-	1r	.	2e/	-si-
2C/	-li-	2G/	-li-	2c\	-li-	.	.	2e/	-li-
=21	=21	=21	=21	=21	=21	=21	=21	=21	=21
2C/	-um	2G/	-um	2c\	-um	1r	.	2e/	-um
2C/	fe-	2G/	fe-	2c\	fe-	.	.	2e/	fe-
=22	=22	=22	=22	=22	=22	=22	=22	=22	=22
!!pagebreak:original
1F	-ce-	1A	-ce-	1c	-ce-	1r	.	1f	-ce-
=23	=23	=23	=23	=23	=23	=23	=23	=23	=23
2C/	-runt	2G/	-runt	2c\	-runt	1r	.	2e/	-runt
2C/	ad-	2c\	ad-	2e\	ad-	.	.	2g/	ad-
=24	=24	=24	=24	=24	=24	=24	=24	=24	=24
1D	-ver-	1A	-ver-	1d	-ver-	1r	.	1f	-ver-
=25	=25	=25	=25	=25	=25	=25	=25	=25	=25
1E	-sum	1G	-sum	2B\	-sum	1r	.	1e	-sum
.	.	.	.	[2c\	me,	.	.	.	.
=26	=26	=26	=26	=26	=26	=26	=26	=26	=26
1F	me,	2c\	me,	2c\]	.	1r	.	[1a	me,
.	.	[2d\	di-	2f\	di-	.	.	.	.
=27	=27	=27	=27	=27	=27	=27	=27	=27	=27
1A	di-	2d\]	.	2.e\	-cen-	1r	.	2a/]	.
.	.	[2c\	-cen-	.	.	.	.	2e/	di-
.	.	.	.	8d\L	.	.	.	.	.
.	.	.	.	8c\J	.	.	.	.	.
=28	=28	=28	=28	=28	=28	=28	=28	=28	=28
1G	-cen-	2c\]	.	1d	.	1r	.	1g	-cen-
.	.	2B\	.	.	.	.	.	.	.
=29	=29	=29	=29	=29	=29	=29	=29	=29	=29
[1C	-tes:	[1c	-tes:	[1e	-tes:	1r	.	[1g	-tes:
=30	=30	=30	=30	=30	=30	=30	=30	=30	=30
1C]	.	1c]	.	1e]	.	1r	.	1g]	.
=31||	=31||	=31||	=31||	=31||	=31||	=31||	=31||	=31||	=31||
!!linebreak:original
1G	Ve-	1B	Ve-	1d	Ve-	1r	.	1g	Ve-
=32	=32	=32	=32	=32	=32	=32	=32	=32	=32
1G	-ni-	[1B	-ni-	[1d	-ni-	1r	.	[1g	-ni-
=33	=33	=33	=33	=33	=33	=33	=33	=33	=33
1G	-te	1B]	.	1d]	.	1r	.	1g]	.
=34	=34	=34	=34	=34	=34	=34	=34	=34	=34
2C/	et	2c\	-te	2e\	-te	1r	.	2g/	-te
2C/	mit-	2c\	mit-	2e\	mit-	.	.	2g/	mit-
=35	=35	=35	=35	=35	=35	=35	=35	=35	=35
2G\	-ta-	2B\	-ta-	2d\	-ta-	1r	.	2g/	-ta-
2E\	-mus	2c\	-mus	2e\	-mus	.	.	2g/	-mus
=36	=36	=36	=36	=36	=36	=36	=36	=36	=36
1A	li-	2c\	li-	1c	li-	1r	.	1e	li-
.	.	4B\	.	.	.	.	.	.	.
.	.	4A/	.	.	.	.	.	.	.
=37	=37	=37	=37	=37	=37	=37	=37	=37	=37
1G	-gnum	1B	-gnum	1d	-gnum	1r	.	1g	-gnum
=38	=38	=38	=38	=38	=38	=38	=38	=38	=38
1C	in	1c	in	1e	in	1r	.	1g	in
=39	=39	=39	=39	=39	=39	=39	=39	=39	=39
2F\	pa-	2A/	pa-	2c\	pa-	1r	.	2f/	pa-
2C/	-nem	2G/	-nem	2c\	-nem	.	.	2e/	-nem
=40	=40	=40	=40	=40	=40	=40	=40	=40	=40
1D	e-	1F	e-	1A	e-	1r	.	1f	e-
=41	=41	=41	=41	=41	=41	=41	=41	=41	=41
2C/	-jus,	2G/	-jus,	2c\	-jus,	1r	.	2e/	-jus,
2AA/	et	2A/	et	2c\	et	.	.	2e/	et
=42	=42	=42	=42	=42	=42	=42	=42	=42	=42
!!linebreak:original
2AA/	e-	2A/	e-	2c\	e-	1r	.	2e/	e-
2AA/	-ra-	2A/	-ra-	2c\	-ra-	.	.	2e/	-ra-
=43	=43	=43	=43	=43	=43	=43	=43	=43	=43
2E\	-da-	2G/	-da-	2B\	-da-	1r	.	2e/	-da-
2AA/	-mus	2E/	-mus	2c\	-mus	.	.	2e/	-mus
=44	=44	=44	=44	=44	=44	=44	=44	=44	=44
1D	e-	1F	e-	1A	e-	1r	.	1d	e-
=45	=45	=45	=45	=45	=45	=45	=45	=45	=45
2C/	-um	2G/	-um	2c\	-um	1r	.	2e/	-um
2C/	de	2G/	de	2c\	de	.	.	2e/	de
=46	=46	=46	=46	=46	=46	=46	=46	=46	=46
1F	ter-	1A	ter-	1c	ter-	1r	.	1f	ter-
=47	=47	=47	=47	=47	=47	=47	=47	=47	=47
1C	-ra	[1G	-ra	1c	-ra	1r	.	1e	-ra
=48	=48	=48	=48	=48	=48	=48	=48	=48	=48
1C	vi-	1G]	.	1c	vi-	1r	.	1e	vi-
=49	=49	=49	=49	=49	=49	=49	=49	=49	=49
[1D	-ven-	2F#/	vi-	[1A	-ven-	1r	.	[1d	-ven-
.	.	[2G/	-ven-	.	.	.	.	.	.
=50	=50	=50	=50	=50	=50	=50	=50	=50	=50
2D\]	.	2G/]	.	2A/]	.	1r	.	2d/]	.
2D\	-ti-	2F#i/	-ti-	2A/	-ti-	.	.	2d/	-ti-
=51	=51	=51	=51	=51	=51	=51	=51	=51	=51
[1GG	-um.	[1G	-um.	[1B	-um.	1r	.	[1d	-um.
=52	=52	=52	=52	=52	=52	=52	=52	=52	=52
1GG]	.	1G]	.	1B]	.	1r	.	1d]	.
=53||	=53||	=53||	=53||	=53||	=53||	=53||	=53||	=53||	=53||
!!pagebreak:original
1r	.	1r	.	1c	O-	1g	O-	1e	O-
=54	=54	=54	=54	=54	=54	=54	=54	=54	=54
1r	.	1r	.	2c\	-mnes	2g/	-mnes	2e/	-mnes
.	.	.	.	[2c\	i-	[2g/	i-	[2e/	i-
=55	=55	=55	=55	=55	=55	=55	=55	=55	=55
1r	.	1r	.	2c\]	.	2g/]	.	2e/]	.
.	.	.	.	2B\	-ni-	2g/	-ni-	2d/	-ni-
=56	=56	=56	=56	=56	=56	=56	=56	=56	=56
1r	.	1r	.	2c\	-mi-	2g/	-mi-	2e/	-mi-
.	.	.	.	2e\	-ci	2g/	-ci	2g/	-ci
=57	=57	=57	=57	=57	=57	=57	=57	=57	=57
1r	.	1r	.	1d	me-	1a	me-	1f#	me-
=58	=58	=58	=58	=58	=58	=58	=58	=58	=58
1r	.	1r	.	2G/	-i	2b\	-i	2g/	-i
.	.	.	.	2c\	ad-	2cc\	ad-	2g/	ad-
=59	=59	=59	=59	=59	=59	=59	=59	=59	=59
1r	.	1r	.	2d\	-ver-	2a/	-ver-	2f#/	-ver-
.	.	.	.	2G/	-sum	2b\	-sum	2g/	-sum
=60	=60	=60	=60	=60	=60	=60	=60	=60	=60
1r	.	1r	.	2c\	me	2cc\	me	2e/	me
.	.	.	.	[2c\	co-	[2g/	co-	[2e/	co-
=61	=61	=61	=61	=61	=61	=61	=61	=61	=61
1r	.	1r	.	2c\]	.	2g/]	.	2e/]	.
.	.	.	.	2F/	-gi-	2a/	-gi-	2f/	-gi-
=62	=62	=62	=62	=62	=62	=62	=62	=62	=62
1r	.	1r	.	1c	-ta-	1g	-ta-	1e	-ta-
=63	=63	=63	=63	=63	=63	=63	=63	=63	=63
!!linebreak:original
1r	.	1r	.	2F/	-bant	2a/	-bant	2f/	-bant
.	.	.	.	[2c\	ma-	[2g/	ma-	[2e/	ma-
=64	=64	=64	=64	=64	=64	=64	=64	=64	=64
1r	.	1r	.	2c\]	.	2g/]	.	2e/]	.
.	.	.	.	2e\	-la	2g/	-la	[2g/	-la
=65	=65	=65	=65	=65	=65	=65	=65	=65	=65
1r	.	1r	.	[1d	mi-	[1a	mi-	2g/]	.
.	.	.	.	.	.	.	.	4f#/	.
.	.	.	.	.	.	.	.	4e/	.
=66	=66	=66	=66	=66	=66	=66	=66	=66	=66
1r	.	1r	.	1d]	.	1a]	.	1f#	mi-
=67	=67	=67	=67	=67	=67	=67	=67	=67	=67
1r	.	1r	.	[1G	-hi:	[1b	-hi:	[1g	-hi:
=68	=68	=68	=68	=68	=68	=68	=68	=68	=68
1r	.	1r	.	1G]	.	1b]	.	1g]	.
=69||	=69||	=69||	=69||	=69||	=69||	=69||	=69||	=69||	=69||
1G	Ve-	1B	Ve-	1d	Ve-	1r	.	1g	Ve-
=70	=70	=70	=70	=70	=70	=70	=70	=70	=70
1G	-ni-	[1B	-ni-	[1d	-ni-	1r	.	[1g	-ni-
=71	=71	=71	=71	=71	=71	=71	=71	=71	=71
1G	-te	1B]	.	1d]	.	1r	.	1g]	.
=72	=72	=72	=72	=72	=72	=72	=72	=72	=72
2C/	et	2c\	-te	2e\	-te	1r	.	2g/	-te
2C/	mit-	2c\	mit-	2e\	mit-	.	.	2g/	mit-
=73	=73	=73	=73	=73	=73	=73	=73	=73	=73
2G\	-ta-	2B\	-ta-	2d\	-ta-	1r	.	2g/	-ta-
2E\	-mus	2c\	-mus	2e\	-mus	.	.	2g/	-mus
=74	=74	=74	=74	=74	=74	=74	=74	=74	=74
1A	li-	2c\	li-	1c	li-	1r	.	1e	li-
.	.	4B\	.	.	.	.	.	.	.
.	.	4A/	.	.	.	.	.	.	.
=75	=75	=75	=75	=75	=75	=75	=75	=75	=75
1G	-gnum	1B	-gnum	1d	-gnum	1r	.	1g	-gnum
=76	=76	=76	=76	=76	=76	=76	=76	=76	=76
1C	in	1c	in	1e	in	1r	.	1g	in
=77	=77	=77	=77	=77	=77	=77	=77	=77	=77
2F\	pa-	2A/	pa-	2c\	pa-	1r	.	2f/	pa-
2C/	-nem	2G/	-nem	2c\	-nem	.	.	2e/	-nem
=78	=78	=78	=78	=78	=78	=78	=78	=78	=78
!!linebreak:original
1D	e-	1F	e-	1A	e-	1r	.	1f	e-
=79	=79	=79	=79	=79	=79	=79	=79	=79	=79
2C/	-jus,	2G/	-jus,	2c\	-jus,	1r	.	2e/	-jus,
2AA/	et	2A/	et	2c\	et	.	.	2e/	et
=80	=80	=80	=80	=80	=80	=80	=80	=80	=80
2AA/	e-	2A/	e-	2c\	e-	1r	.	2e/	e-
2AA/	-ra-	2A/	-ra-	2c\	-ra-	.	.	2e/	-ra-
=81	=81	=81	=81	=81	=81	=81	=81	=81	=81
2E\	-da-	2G/	-da-	2B\	-da-	1r	.	2e/	-da-
2AA/	-mus	2E/	-mus	2c\	-mus	.	.	2e/	-mus
=82	=82	=82	=82	=82	=82	=82	=82	=82	=82
1D	e-	1F	e-	1A	e-	1r	.	1d	e-
=83	=83	=83	=83	=83	=83	=83	=83	=83	=83
2C/	-um	2G/	-um	2c\	-um	1r	.	2e/	-um
2C/	de	2G/	de	2c\	de	.	.	2e/	de
=84	=84	=84	=84	=84	=84	=84	=84	=84	=84
1F	ter-	1A	ter-	1c	ter-	1r	.	1f	ter-
=85	=85	=85	=85	=85	=85	=85	=85	=85	=85
1C	-ra	[1G	-ra	1c	-ra	1r	.	1e	-ra
=86	=86	=86	=86	=86	=86	=86	=86	=86	=86
1C	vi-	1G]	.	1c	vi-	1r	.	1e	vi-
=87	=87	=87	=87	=87	=87	=87	=87	=87	=87
[1D	-ven-	2F#/	vi-	[1A	-ven-	1r	.	[1d	-ven-
.	.	[2G/	-ven-	.	.	.	.	.	.
=88	=88	=88	=88	=88	=88	=88	=88	=88	=88
2D\]	.	2G/]	.	2A/]	.	1r	.	2d/]	.
2D\	-ti-	2F#i/	-ti-	2A/	-ti-	.	.	2d/	-ti-
=89	=89	=89	=89	=89	=89	=89	=89	=89	=89
[1GG	-um.	[1G	-um.	[1B	-um.	1r	.	[1d	-um.
=90	=90	=90	=90	=90	=90	=90	=90	=90	=90
1GG]	.	1G]	.	1B]	.	1r	.	1d]	.
==	==	==	==	==	==	==	==	==	==
*-	*-	*-	*-	*-	*-	*-	*-	*-	*-
!!!OTL: Eram quasi agnus
!!!COM: Ingegneri, Marc' Antonio
!!!CDT: ca. 1535/36-1592-07-01
!!!TXO: Latin
!!!ODT: 
!!!ARL: Klasztor OO. Paulinów na Jasnej Górze
!!!voices:	5
!!title: @{OTL}, @{GTL}, ed. @{ENC}
!!!pag:
!!!GTL: Responsoria in Hebdomada majore
!!!EFL: 
!!!YEM: Creative Commons CC/BY/NC/SA 4.0
!!!ENC: Marcin Konik
!!!END: 2015-0m-dd
!!!EED: Marcin Konik
!!!EEV: 
!!!ONB: Encoded in vim by Marcin Konik
!!!CharacterEncoding: utf-8
!!!RDF**kern: l=long note in original notation
!!!RDF**kern: i=editorial accidental
!!muse2ps: z14jc180F
